docs/enum.svg

<?xml version="1.0" encoding="UTF-8" standalone="no"?>
<svg
   xmlns:dc="http://purl.org/dc/elements/1.1/"
   xmlns:cc="http://creativecommons.org/ns#"
   xmlns:rdf="http://www.w3.org/1999/02/22-rdf-syntax-ns#"
   xmlns:svg="http://www.w3.org/2000/svg"
   xmlns="http://www.w3.org/2000/svg"
   height="16"
   id="svg7384"
   version="1.1"
   width="16.036167">
  <metadata
     id="metadata90">
    <rdf:RDF>
      <cc:Work
         rdf:about="">
        <dc:format>image/svg+xml</dc:format>
        <dc:type
           rdf:resource="http://purl.org/dc/dcmitype/StillImage" />
        <dc:title>elementary Symbolic Icon Theme</dc:title>
      </cc:Work>
    </rdf:RDF>
  </metadata>
  <title
     id="title9167">elementary Symbolic Icon Theme</title>
  <defs
     id="defs7386" />
  <path
     style="color:#fbc02d;clip-rule:nonzero;display:inline;overflow:visible;visibility:visible;opacity:1;isolation:auto;mix-blend-mode:normal;color-interpolation:sRGB;color-interpolation-filters:linearRGB;solid-color:#000000;solid-opacity:1;fill:#fbc02d;fill-opacity:1;fill-rule:nonzero;stroke:none;stroke-width:1;stroke-linecap:butt;stroke-linejoin:miter;stroke-miterlimit:4;stroke-dasharray:none;stroke-dashoffset:0;stroke-opacity:1;marker:none;color-rendering:auto;image-rendering:auto;shape-rendering:auto;text-rendering:auto;enable-background:accumulate"
     d="M 3.5555556,0 C 2.6937778,0 2,0.7008571 2,1.5714286 L 2,9.428572 C 2,10.299143 2.6937778,11 3.5555556,11 L 14.444444,11 C 15.306223,11 16,10.299143 16,9.428572 L 16,1.5714286 C 16,0.7008571 15.306223,0 14.444444,0 Z"
     id="rect4162-1-2-3-8-7" />
  <g
     id="layer9-5-3"
     label="status"
     style="display:inline"
     transform="translate(-432.01847,10)" />
  <g
     id="layer10-5-2"
     style="display:inline"
     transform="translate(-432.01847,10)" />
  <g
     id="layer13-9-9"
     style="display:inline"
     transform="translate(-432.01847,10)" />
  <g
     id="layer14-5-5"
     transform="translate(-432.01847,10)" />
  <g
     id="layer15-5-8"
     style="display:inline"
     transform="translate(-432.01847,10)" />
  <g
     id="g71291-6-4"
     style="display:inline"
     transform="translate(-432.01847,10)" />
  <g
     id="layer9-2-2-5-0"
     style="display:inline"
     transform="translate(-700.78173,601.60207)" />
  <g
     id="layer10-0-6-1-9"
     style="display:inline"
     transform="translate(-700.78173,601.60207)" />
  <g
     id="layer11-5-5-1"
     transform="translate(-700.78173,601.60207)" />
  <g
     id="layer14-7-9-0-7"
     transform="translate(-700.78173,601.60207)" />
  <g
     id="layer15-5-2-6-7"
     style="display:inline"
     transform="translate(-700.78173,601.60207)" />
  <g
     id="g71291-8-4-6-6"
     style="display:inline"
     transform="translate(-700.78173,601.60207)" />
  <g
     id="g4953-5-5-9"
     style="display:inline"
     transform="translate(-700.78173,601.60207)" />
  <g
     id="layer12-4-2-3"
     style="display:inline"
     transform="translate(-700.78173,601.60207)" />
  <g
     id="layer10-2-9-7"
     style="display:inline"
     transform="translate(-287.04652,404.39676)" />
  <g
     id="layer11-2-5"
     transform="translate(-287.04652,404.39676)" />
  <g
     id="layer13-0-1-1"
     style="display:inline"
     transform="translate(-287.04652,404.39676)" />
  <g
     id="layer14-3-5-4"
     transform="translate(-287.04652,404.39676)" />
  <g
     id="layer15-1-4-7"
     style="display:inline"
     transform="translate(-287.04652,404.39676)" />
  <g
     id="g71291-5-9-2"
     style="display:inline"
     transform="translate(-287.04652,404.39676)" />
  <g
     id="g4953-51-8"
     style="display:inline"
     transform="translate(-287.04652,404.39676)" />
  <g
     id="layer12-8-0"
     style="display:inline"
     transform="translate(-287.04652,404.39676)" />
  <path
     style="color:#bebebe;clip-rule:nonzero;display:inline;overflow:visible;visibility:visible;opacity:0.5;isolation:auto;mix-blend-mode:normal;color-interpolation:sRGB;color-interpolation-filters:linearRGB;solid-color:#000000;solid-opacity:1;fill:#403757;fill-opacity:1;fill-rule:nonzero;stroke:none;stroke-width:1;stroke-linecap:butt;stroke-linejoin:miter;stroke-miterlimit:4;stroke-dasharray:none;stroke-dashoffset:0;stroke-opacity:1;marker:none;color-rendering:auto;image-rendering:auto;shape-rendering:auto;text-rendering:auto;enable-background:accumulate"
     d="m 4.9819164,3 0,1 7.9999996,0 0,-1 -7.9999996,0 z m 0,2 0,1 7.9999996,0 0,-1 -7.9999996,0 z m 0,2 0,1 7.9999996,0 0,-1 -7.9999996,0 z"
     id="rect4194-8-1-7-2" />
  <g
     id="layer9"
     label="status"
     style="display:inline"
     transform="translate(-433.00039,12)" />
  <g
     id="layer10"
     style="display:inline"
     transform="translate(-433.00039,12)" />
  <g
     id="layer13"
     style="display:inline"
     transform="translate(-433.00039,12)" />
  <g
     id="layer14"
     transform="translate(-433.00039,12)" />
  <g
     id="layer15"
     style="display:inline"
     transform="translate(-433.00039,12)" />
  <g
     id="g71291"
     style="display:inline"
     transform="translate(-433.00039,12)" />
  <g
     id="layer9-2-2"
     style="display:inline"
     transform="translate(-701.76365,603.60207)" />
  <g
     id="layer10-0-6"
     style="display:inline"
     transform="translate(-701.76365,603.60207)" />
  <g
     id="layer11-5"
     transform="translate(-701.76365,603.60207)" />
  <g
     id="layer14-7-9"
     transform="translate(-701.76365,603.60207)" />
  <g
     id="layer15-5-2"
     style="display:inline"
     transform="translate(-701.76365,603.60207)" />
  <g
     id="g71291-8-4"
     style="display:inline"
     transform="translate(-701.76365,603.60207)" />
  <g
     id="g4953-5"
     style="display:inline"
     transform="translate(-701.76365,603.60207)" />
  <g
     id="layer12-4"
     style="display:inline"
     transform="translate(-701.76365,603.60207)" />
  <g
     id="layer10-2"
     style="display:inline"
     transform="translate(-288.02844,406.39676)" />
  <g
     id="layer11"
     transform="translate(-288.02844,406.39676)" />
  <g
     id="layer13-0"
     style="display:inline"
     transform="translate(-288.02844,406.39676)" />
  <g
     id="layer14-3"
     transform="translate(-288.02844,406.39676)" />
  <g
     id="layer15-1"
     style="display:inline"
     transform="translate(-288.02844,406.39676)" />
  <g
     id="g71291-5"
     style="display:inline"
     transform="translate(-288.02844,406.39676)" />
  <g
     id="g4953"
     style="display:inline"
     transform="translate(-288.02844,406.39676)" />
  <g
     id="layer12"
     style="display:inline"
     transform="translate(-288.02844,406.39676)" />
  <g
     id="layer9-5"
     label="status"
     style="display:inline"
     transform="translate(-434.01847,15)" />
  <g
     id="layer10-5"
     style="display:inline"
     transform="translate(-434.01847,15)" />
  <g
     id="layer13-9"
     style="display:inline"
     transform="translate(-434.01847,15)" />
  <g
     id="layer14-5"
     transform="translate(-434.01847,15)" />
  <g
     id="layer15-5"
     style="display:inline"
     transform="translate(-434.01847,15)" />
  <g
     id="g71291-6"
     style="display:inline"
     transform="translate(-434.01847,15)" />
  <g
     id="layer9-2-2-5"
     style="display:inline"
     transform="translate(-702.78173,606.60207)" />
  <g
     id="layer10-0-6-1"
     style="display:inline"
     transform="translate(-702.78173,606.60207)" />
  <g
     id="layer11-5-5"
     transform="translate(-702.78173,606.60207)" />
  <g
     id="layer14-7-9-0"
     transform="translate(-702.78173,606.60207)" />
  <g
     id="layer15-5-2-6"
     style="display:inline"
     transform="translate(-702.78173,606.60207)" />
  <g
     id="g71291-8-4-6"
     style="display:inline"
     transform="translate(-702.78173,606.60207)" />
  <g
     id="g4953-5-5"
     style="display:inline"
     transform="translate(-702.78173,606.60207)" />
  <g
     id="layer12-4-2"
     style="display:inline"
     transform="translate(-702.78173,606.60207)" />
  <g
     id="layer10-2-9"
     style="display:inline"
     transform="translate(-289.04652,409.39676)" />
  <g
     id="layer11-2"
     transform="translate(-289.04652,409.39676)" />
  <g
     id="layer13-0-1"
     style="display:inline"
     transform="translate(-289.04652,409.39676)" />
  <g
     id="layer14-3-5"
     transform="translate(-289.04652,409.39676)" />
  <g
     id="layer15-1-4"
     style="display:inline"
     transform="translate(-289.04652,409.39676)" />
  <g
     id="g71291-5-9"
     style="display:inline"
     transform="translate(-289.04652,409.39676)" />
  <g
     id="g4953-51"
     style="display:inline"
     transform="translate(-289.04652,409.39676)" />
  <g
     id="layer12-8"
     style="display:inline"
     transform="translate(-289.04652,409.39676)" />
  <path
     id="rect4489"
     d="M 2 4 L 2 9.4277344 C 2 10.298305 2.6929097 11 3.5546875 11 L 14.445312 11 C 14.642115 11 14.826982 10.959355 15 10.892578 L 15 6.4492188 C 15 5.092504 13.992586 4 12.740234 4 L 2 4 z "
     style="color:#bebebe;clip-rule:nonzero;display:inline;overflow:visible;visibility:visible;opacity:0.1;isolation:auto;mix-blend-mode:normal;color-interpolation:sRGB;color-interpolation-filters:linearRGB;solid-color:#000000;solid-opacity:1;fill:#800000;fill-opacity:1;fill-rule:nonzero;stroke:none;stroke-width:1;stroke-linecap:butt;stroke-linejoin:miter;stroke-miterlimit:4;stroke-dasharray:none;stroke-dashoffset:0;stroke-opacity:1;marker:none;color-rendering:auto;image-rendering:auto;shape-rendering:auto;text-rendering:auto;enable-background:accumulate" />
  <path
     id="rect4564"
     d="M 2 3 L 2 9.4277344 C 2 10.298305 2.6929097 11 3.5546875 11 L 14.445312 11 C 15.307091 11 16 10.298305 16 9.4277344 L 16 6 C 16 4.338 14.662 3 13 3 L 2 3 z "
     style="color:#bebebe;clip-rule:nonzero;display:inline;overflow:visible;visibility:visible;opacity:0.05;isolation:auto;mix-blend-mode:normal;color-interpolation:sRGB;color-interpolation-filters:linearRGB;solid-color:#000000;solid-opacity:1;fill:#800000;fill-opacity:1;fill-rule:nonzero;stroke:none;stroke-width:1;stroke-linecap:butt;stroke-linejoin:miter;stroke-miterlimit:4;stroke-dasharray:none;stroke-dashoffset:0;stroke-opacity:1;marker:none;color-rendering:auto;image-rendering:auto;shape-rendering:auto;text-rendering:auto;enable-background:accumulate" />
  <path
     style="color:#fbc02d;clip-rule:nonzero;display:inline;overflow:visible;visibility:visible;opacity:1;isolation:auto;mix-blend-mode:normal;color-interpolation:sRGB;color-interpolation-filters:linearRGB;solid-color:#000000;solid-opacity:1;fill:#fbc02d;fill-opacity:1;fill-rule:nonzero;stroke:none;stroke-width:1;stroke-linecap:butt;stroke-linejoin:miter;stroke-miterlimit:4;stroke-dasharray:none;stroke-dashoffset:0;stroke-opacity:1;marker:none;color-rendering:auto;image-rendering:auto;shape-rendering:auto;text-rendering:auto;enable-background:accumulate"
     d="M 1.5555556,5 C 0.6937778,5 0,5.7008571 0,6.5714286 L 0,14.428572 C 0,15.299143 0.6937778,16 1.5555556,16 L 12.444444,16 C 13.306223,16 14,15.299143 14,14.428572 L 14,6.5714286 C 14,5.7008571 13.306223,5 12.444444,5 Z"
     id="rect4162-1-2-3-8" />
  <path
     style="color:#bebebe;clip-rule:nonzero;display:inline;overflow:visible;visibility:visible;opacity:0.5;isolation:auto;mix-blend-mode:normal;color-interpolation:sRGB;color-interpolation-filters:linearRGB;solid-color:#000000;solid-opacity:1;fill:#403757;fill-opacity:1;fill-rule:nonzero;stroke:none;stroke-width:1;stroke-linecap:butt;stroke-linejoin:miter;stroke-miterlimit:4;stroke-dasharray:none;stroke-dashoffset:0;stroke-opacity:1;marker:none;color-rendering:auto;image-rendering:auto;shape-rendering:auto;text-rendering:auto;enable-background:accumulate"
     d="m 2.9819164,8 0,1 7.9999996,0 0,-1 -7.9999996,0 z m 0,2 0,1 7.9999996,0 0,-1 -7.9999996,0 z m 0,2 0,1 7.9999996,0 0,-1 -7.9999996,0 z"
     id="rect4194-8-1-7" />
</svg>

<?xml version="1.0" encoding="UTF-8"?>
<svg id="svg7384" width="16.036" height="16" version="1.1" xmlns="http://www.w3.org/2000/svg" xmlns:cc="http://creativecommons.org/ns#" xmlns:dc="http://purl.org/dc/elements/1.1/" xmlns:rdf="http://www.w3.org/1999/02/22-rdf-syntax-ns#">
 <metadata id="metadata90">
  <rdf:RDF>
   <cc:Work rdf:about="">
    <dc:format>image/svg+xml</dc:format>
    <dc:type rdf:resource="http://purl.org/dc/dcmitype/StillImage"/>
    <dc:title>elementary Symbolic Icon Theme</dc:title>
   </cc:Work>
  </rdf:RDF>
 </metadata>
 <title id="title9167">elementary Symbolic Icon Theme</title>
 <path id="rect4162-1-2-3-8-7" d="m3.5556 0c-0.86178 0-1.5556 0.70086-1.5556 1.5714v7.8571c0 0.87057 0.69378 1.5714 1.5556 1.5714h10.889c0.86178 0 1.5556-0.70086 1.5556-1.5714v-7.8571c0-0.87057-0.69378-1.5714-1.5556-1.5714z" style="color-rendering:auto;color:#fbc02d;fill:#fbc02d;image-rendering:auto;isolation:auto;mix-blend-mode:normal;shape-rendering:auto;solid-color:#000000"/>
 <path id="rect4194-8-1-7-2" d="m4.9819 3v1h8v-1h-8zm0 2v1h8v-1h-8zm0 2v1h8v-1h-8z" style="color-rendering:auto;color:#bebebe;fill:#403757;image-rendering:auto;isolation:auto;mix-blend-mode:normal;opacity:.5;shape-rendering:auto;solid-color:#000000"/>
 <path id="rect4489" d="m2 4v5.4277c0 0.87057 0.69291 1.5723 1.5547 1.5723h10.891c0.1968 0 0.38167-0.040645 0.55469-0.10742v-4.4434c0-1.3567-1.0074-2.4492-2.2598-2.4492h-10.74z" style="color-rendering:auto;color:#bebebe;fill:#800000;image-rendering:auto;isolation:auto;mix-blend-mode:normal;opacity:.1;shape-rendering:auto;solid-color:#000000"/>
 <path id="rect4564" d="m2 3v6.4277c0 0.87057 0.69291 1.5723 1.5547 1.5723h10.891c0.86178 0 1.5547-0.7017 1.5547-1.5723v-3.4277c0-1.662-1.338-3-3-3h-11z" style="color-rendering:auto;color:#bebebe;fill:#800000;image-rendering:auto;isolation:auto;mix-blend-mode:normal;opacity:.05;shape-rendering:auto;solid-color:#000000"/>
 <path id="rect4162-1-2-3-8" d="m1.5556 5c-0.86178 0-1.5556 0.70086-1.5556 1.5714v7.8571c0 0.87057 0.69378 1.5714 1.5556 1.5714h10.889c0.86178 0 1.5556-0.70086 1.5556-1.5714v-7.8571c0-0.87057-0.69378-1.5714-1.5556-1.5714z" style="color-rendering:auto;color:#fbc02d;fill:#fbc02d;image-rendering:auto;isolation:auto;mix-blend-mode:normal;shape-rendering:auto;solid-color:#000000"/>
 <path id="rect4194-8-1-7" d="m2.9819 8v1h8v-1h-8zm0 2v1h8v-1h-8zm0 2v1h8v-1h-8z" style="color-rendering:auto;color:#bebebe;fill:#403757;image-rendering:auto;isolation:auto;mix-blend-mode:normal;opacity:.5;shape-rendering:auto;solid-color:#000000"/>
</svg>
